src/assets/hand-writing.svg

<svg width="67" height="53" viewBox="0 0 67 53" fill="none" xmlns="http://www.w3.org/2000/svg">
<path d="M3.25309 39.8253C3.75302 40.0688 4.29128 40.237 4.84641 40.3311L3.98151 41.534C3.80669 41.7774 3.6927 42.0567 3.64772 42.35L2.36008 50.8077C2.2512 51.5241 2.56659 52.2391 3.17591 52.6543C3.78573 53.07 4.58316 53.1138 5.23643 52.7693L12.5088 48.9338C13.5133 50.7012 15.4475 51.901 17.6645 51.901C19.1714 51.901 20.548 51.3469 21.5903 50.4373C22.6331 51.3469 24.0096 51.901 25.5161 51.901C28.7635 51.901 31.4052 49.3281 31.4052 46.1656V45.4338C35.0565 47.1643 39.1224 48.0774 43.1826 48.0774C47.3767 48.0774 51.5361 47.1404 55.2221 45.3695V49.9892C55.2221 50.6519 55.5743 51.2672 56.153 51.6158C56.7306 51.9633 57.4534 51.9961 58.0627 51.6994L65.9148 47.8758C66.5798 47.5517 67 46.89 67 46.1656V23.2235C67 22.1675 66.1208 21.3117 65.0371 21.3117C61.9103 21.3117 54.3245 21.3117 51.4891 21.3117L37.642 14.7125L42.903 7.39485C43.524 6.53055 43.3088 5.33767 42.4204 4.73226L35.9889 0.345569C35.1015 -0.259337 33.8767 -0.0497359 33.2552 0.815056C32.424 1.9711 27.1201 9.34897 26.2946 10.497C24.6844 9.67308 22.7537 9.67706 21.5289 10.1948L14.0597 13.3553C12.9771 13.8138 12.0697 14.5686 11.4369 15.5389L0.718715 31.9585C0.0225021 33.0255 -0.265797 34.8561 0.299556 36.5085C0.796924 37.9618 1.84584 39.1397 3.25309 39.8253ZM6.81952 47.5865L7.46359 43.3577L9.21895 40.9156C9.97139 41.9855 10.9953 42.8593 12.1934 43.4448L10.6794 45.5508L6.81952 47.5865ZM17.6645 48.0779C16.5823 48.0779 15.7016 47.2201 15.7016 46.1656V45.2311L16.4045 44.2538H19.6274V46.1656C19.6274 47.2201 18.7471 48.0779 17.6645 48.0779ZM25.5166 48.0779C24.4339 48.0779 23.5537 47.2201 23.5537 46.1656V44.2538H27.4795V46.1656C27.4795 47.2201 26.5987 48.0779 25.5166 48.0779ZM63.0742 44.9842L59.1479 46.896V25.1353H63.0742V44.9842ZM50.1718 24.9406C50.4407 25.0686 50.7356 25.1353 51.0347 25.1353H55.2221V41.1347C53.8992 41.6355 49.7915 44.2538 43.1831 44.2538C36.1775 44.2538 31.8627 41.2318 30.32 40.6318C30.0399 40.4954 29.7312 40.4302 29.4423 40.4302H15.7016C13.6942 40.4302 12.035 38.955 11.8044 37.0592C11.8658 36.7819 11.8602 36.4971 11.7952 36.2247C11.9926 34.295 13.6692 32.783 15.7016 32.783H27.8163C31.9205 32.783 35.7798 31.2262 38.6822 28.3993C39.4485 27.6525 39.4485 26.4422 38.6822 25.6954C37.9155 24.9486 36.6728 24.9486 35.9061 25.6954C33.7449 27.7999 30.8721 28.9594 27.8163 28.9594H27.4002L35.3622 17.8839L50.1718 24.9406ZM30.8414 10.8391L34.0572 13.0327L22.6075 28.9594H17.8148C19.4837 26.6378 29.3105 12.9689 30.8414 10.8391ZM35.3448 4.57494L38.5611 6.76803L36.3089 9.9006L33.0931 7.70701L35.3448 4.57494ZM4.09499 33.9132L14.7498 17.5906C14.9609 17.267 15.2635 17.0156 15.6244 16.8628L23.0001 13.7416C23.3277 13.648 23.6656 13.6416 23.9846 13.7108L12.562 29.5991C10.1477 30.6292 8.36376 32.8079 7.9446 35.4227C7.58576 36.4045 6.02619 36.9003 5.00896 36.405C4.05154 35.939 3.67123 34.8322 4.09499 33.9132Z" fill="#36458F"/>
</svg>

<svg fill="none" xmlns="http://www.w3.org/2000/svg" viewBox="0 0 67 53">
  <path d="M3.253 39.825c.5.244 1.038.412 1.593.506l-.864 1.203a1.89 1.89 0 00-.334.816L2.36 50.808a1.89 1.89 0 00.816 1.846c.61.416 1.407.46 2.06.115l7.273-3.835a5.919 5.919 0 005.155 2.967 5.955 5.955 0 003.926-1.464 5.957 5.957 0 003.926 1.464c3.248 0 5.89-2.573 5.89-5.735v-.732a27.647 27.647 0 0011.777 2.643c4.194 0 8.353-.937 12.04-2.707v4.62c0 .662.351 1.277.93 1.626.578.347 1.3.38 1.91.083l7.852-3.823A1.908 1.908 0 0067 46.166V23.224c0-1.056-.88-1.912-1.963-1.912H51.49l-13.847-6.6 5.261-7.317a1.881 1.881 0 00-.483-2.663L35.99.346c-.887-.605-2.112-.396-2.734.47l-6.96 9.681c-1.61-.824-3.541-.82-4.766-.302l-7.47 3.16a5.828 5.828 0 00-2.622 2.184L.719 31.959c-.696 1.067-.985 2.897-.42 4.55a5.748 5.748 0 002.954 3.316zm3.567 7.761l.644-4.228 1.755-2.442a7.849 7.849 0 002.974 2.529L10.68 45.55l-3.86 2.035zm10.845.492c-1.083 0-1.963-.858-1.963-1.912v-.935l.702-.977h3.223v1.912c0 1.054-.88 1.912-1.962 1.912zm7.852 0c-1.083 0-1.963-.858-1.963-1.912v-1.912h3.926v1.912c0 1.054-.881 1.912-1.963 1.912zm37.557-3.094l-3.926 1.912v-21.76h3.926v19.848zM50.172 24.941c.269.128.564.194.863.194h4.187v16c-1.323.5-5.43 3.119-12.039 3.119-7.005 0-11.32-3.022-12.863-3.622a2.028 2.028 0 00-.878-.202h-13.74c-2.008 0-3.667-1.475-3.898-3.37a1.86 1.86 0 00-.009-.835c.198-1.93 1.874-3.442 3.907-3.442h12.114c4.105 0 7.964-1.557 10.866-4.384a1.877 1.877 0 000-2.704 2 2 0 00-2.776 0c-2.161 2.105-5.034 3.264-8.09 3.264H27.4l7.962-11.075 14.81 7.057zm-19.33-14.102l3.215 2.194-11.45 15.926h-4.792L30.84 10.84zm4.503-6.264l3.216 2.193-2.252 3.133-3.216-2.194 2.252-3.132zM4.095 33.913L14.75 17.591c.21-.324.514-.575.874-.728L23 13.742c.328-.094.666-.1.985-.031L12.562 29.599c-2.414 1.03-4.198 3.209-4.617 5.824-.36.981-1.919 1.477-2.936.982a1.889 1.889 0 01-.914-2.492z" fill="#36458F"/>
</svg>
